X:40
T:The Middletown Meltdown
R:double jig
C: 1979, 2010 L.E. McCullough  
M:6/8
L:1/8
K:Dmix
|:Ade ~f3|~g3 age|dcA GEG|~A3 GEG|
Ade fed|~g3 age|deg dcA|GED ~D3:| 
|:~f3 def|gea gef|~g3 age|dcA dcA|
~f3 def|gea gea|geg dcA|GED ~D3:| 

